X: 1
T:March  " "
M:C|
L:1/8
Q:80
C:/JHP
S:MACKENZIE HIGHLANDERS (Fall in for Parade)
K:HP
|: {ag}a|
{cd}c{e}B/2{d}c/2{g}A/2B/2{g}c/2d/2|
{gef}eA{GdGe}A{ag}a|  !
{cd}c{e}B/2{d}c/2{g}A/2B/2{g}c/2d/2|
{gef}e2{GdG}e{ag}a| |
{cd}c{e}B/2{d}c/2{g}A/2B/2{g}c/2d/2|  !
{gef}eA{GdGe}A{gf}g|
{Bd}B{g}A/2{d}G/2{gf}g{a}B/2{d}G/2|
{dc}d2{gef}e:| |:  !
{gf}g|
{ag}ac/2{d}A/2{GdG}e{g}f/2d/2|
{gef}eA{GdGe}A{gf}g|  !
{ag}ac/2{d}A/2{GdG}e{g}f/2d/2|
{gef}e2{GdG}e{gf}g| |
|1 {ag}ac/2{d}A/2{GdG}e{g}f/2d/2|  !
{gef}eA{GdGe}A{gf}g|
{Bd}B{g}A/2{d}G/2{gf}g{a}B/2{d}G/2|
{dc}d2{gef}e:| [|  !
|2 {ag}ag/2f/2{gf}gf/2e/2|
{gfg}fe/2d/2{g}e/2f/2{a}g/2d/2|
{gBd}B{g}A/2{d}G/2{gf}g{a}B/2{d}G/2|  !
{dc}d2|1 {gef}e|2 {gdc}d2:|
